X:51
T:The Climbing Wall
M:4/4
L:1/16
R:Strathspey
C:Gris Sanderson
Q:400
N:This strathspey was written in France after an afternoon spent 
N:rock-climbing the walls of a friend's house with his son and 
N:his new climbing equipment! Originally I used the scordatura 
N:tuning A,DAd.
K:Amix
EA3c3A B3A Bd3|de3g3e ag3f4|eg3a3g fd3e3d|c3AB3d cA3G4|
EA,3C3A, B,3A,B,D3|DE3G3E AG3F3D|EG3A3G FD3E3D|EA3B3d cG3A3d||
ea3a3e g3agd3|e3dcA3 dA3e3d|BG3G3D B,D3G3B|A3EAc3 DA3E3d|
ea3a3e g3agd3|e3dcd3 de3f4|g3deg3 B3GBd3|e3Ac3A BG3A3G||
